resources/svg/logout-box-r-fill.svg

<svg fill="currentColor" viewBox="0 0 24 24" xmlns="http://www.w3.org/2000/svg"><path d="M5 22C4.44772 22 4 21.5523 4 21V3C4 2.44772 4.44772 2 5 2H19C19.5523 2 20 2.44772 20 3V21C20 21.5523 19.5523 22 19 22H5ZM15 16L20 12L15 8V11H9V13H15V16Z"/></svg>

<svg xmlns="http://www.w3.org/2000/svg" viewBox="0 0 24 24" fill="currentColor">
    <g>
        <path fill="none" d="M0 0h24v24H0z"/>
        <path d="M5 22a1 1 0 0 1-1-1V3a1 1 0 0 1 1-1h14a1 1 0 0 1 1 1v18a1 1 0 0 1-1 1H5zm10-6l5-4-5-4v3H9v2h6v3z"/>
    </g>
</svg>
